icons/person-arrow-right.svg

<svg xmlns="http://www.w3.org/2000/svg" width="24" height="24" viewBox="0 0 24 24">
  <path d="M10,16 C12.9230769,16 15.8461538,16.9493754 15.9941334,19.3106425 L16,19.5 L16,20.5 C16,20.975 16,21.90125 15.142625,21.9926875 L15,22 L3,22 C2.1,22 2.01,21.19 2.001,20.6635 L2,19.5 C2,17.0641026 4.84812623,16.0522682 7.76928134,16.0019808 L8,16 L10,16 Z M9,6 C11.209139,6 13,7.790861 13,10 C13,12.209139 11.209139,14 9,14 C6.790861,14 5,12.209139 5,10 C5,7.790861 6.790861,6 9,6 Z M21.767,5.359 L21.7803112,5.37455101 L21.7837744,5.37889067 L21.779,5.374 L21.8036654,5.40469339 L21.8036654,5.40469339 C21.8215099,5.42886931 21.8382813,5.45372505 21.8539326,5.47933981 L21.8753288,5.5159379 L21.8753288,5.5159379 C21.8862061,5.53570605 21.8966234,5.5561086 21.9063462,5.57690085 L21.9287745,5.62866398 L21.9287745,5.62866398 C21.9366843,5.6484208 21.9438775,5.66820232 21.9504533,5.68826359 C21.9552713,5.70314866 21.9599023,5.71853672 21.9641549,5.73400703 C21.9701664,5.75556352 21.9753602,5.77725392 21.9798348,5.7992059 C21.9832978,5.81662474 21.9863719,5.83405099 21.9889822,5.85153313 L21.996002,5.90996805 L21.996002,5.90996805 C21.99693,5.92081308 21.9976744,5.93088722 21.9982669,5.94096861 L21.9998198,5.98082404 L22,6 L22,6 L21.999,6.019 L21.9982669,6.05903139 L21.997,6.075 L21.997,6.059 L21.996,6.081 L21.9889807,6.14896122 L21.9889807,6.14896122 C21.9863719,6.16594901 21.9832978,6.18337526 21.9797599,6.20072576 C21.9753602,6.22274608 21.9701664,6.24443648 21.964279,6.26583961 C21.9599023,6.28146328 21.9552713,6.29685134 21.9502619,6.31214252 C21.9438775,6.33179768 21.9366843,6.3515792 21.928896,6.37105852 L21.9063266,6.42322155 L21.9063266,6.42322155 C21.8966234,6.4438914 21.8862061,6.46429395 21.8751242,6.48427695 C21.8685012,6.49639444 21.8613931,6.50861311 21.8540045,6.52070875 C21.8382813,6.54627495 21.8215099,6.57113069 21.8036865,6.5951593 C21.7992821,6.60120864 21.7948255,6.60707334 21.7902954,6.61289944 C21.7849289,6.61966276 21.7826279,6.62256244 21.7803112,6.62544899 L21.7071068,6.70710678 L18.7071068,9.70710678 C18.3165825,10.0976311 17.6834175,10.0976311 17.2928932,9.70710678 C16.9324093,9.34662282 16.9046797,8.77939176 17.2097046,8.38710056 L17.2928932,8.29289322 L18.585,7 L15,7 C14.4477153,7 14,6.55228475 14,6 C14,5.48716416 14.3860402,5.06449284 14.8833789,5.00672773 L15,5 L18.585,5 L17.2928932,3.70710678 C16.9023689,3.31658249 16.9023689,2.68341751 17.2928932,2.29289322 C17.6533772,1.93240926 18.2206082,1.90467972 18.6128994,2.20970461 L18.7071068,2.29289322 L21.7071068,5.29289322 L21.775,5.37 L21.767,5.359 Z"/>
</svg>

<svg xmlns="http://www.w3.org/2000/svg" viewBox="0 0 24 24">
  <path d="M10 16c2.92 0 5.85.95 6 3.31v1.19c0 .48 0 1.4-.86 1.5H3c-.9 0-.99-.81-1-1.34V19.5c0-2.44 2.85-3.45 5.77-3.5H10zM9 6a4 4 0 1 1 0 8 4 4 0 0 1 0-8zm12.77-.64.01.01.02.03.05.08.03.04.03.06.02.05a.99.99 0 0 1 .06.22v.09l.01.04v.1-.02.02l-.01.07a1.08 1.08 0 0 1-.06.22l-.02.05a1.02 1.02 0 0 1-.13.2l-.07.09-3 3a1 1 0 0 1-1.5-1.32l.08-.1L18.6 7H15a1 1 0 0 1-.12-2h3.71l-1.3-1.3a1 1 0 0 1 1.32-1.49l.1.08 3 3 .06.08v-.01z"/>
</svg>
